X:474
T:Walking to Westport
C:Charlie Derrington
N:Transcribed by Mike Stangeland
R:bluegrass
L:1/8
Q:1/4=227
M:4/4
K:G
|: "G"G,2 G2 G,2 G2 | G,2 =FE DC (3A,^A,=A, | G,2 G2 G,2 G2 | G,2 =F^F "D"D2 d'2 | 
"G"G,2 {F}G2 G,2 G2 | G,2 =FE DC (3A,^A,=A, | G,2 G,A, ^A,D DE |1 "D"D^A, (3=A,_B,A, "G"G,4 :|2 "D"D^A, (3=A,_B,A, "G"G,2 G,A, | 
|: "C7"[c2E2^A,2] [c2E2A,2] [cEA,][DG,] (3=A,_B,A, | "G"[G2G,2] [G2G,2] [G2G,2] [G2G,2] | 
"C7"[c2E2^A,2] [c2E2A,2] [cEA,][DG,] (3=A,_B,A, | "G"[G2G,2] [G2G,2] [G2G,2] [G2G,2] | 
"C7"[c2E2^A,2] [c2E2A,2] [cEA,][DG,] (3=A,_B,A, | "G"[G2G,2] [G2G,2] [G2G,2] A^A | 
Bd GB AG EF |1 GE DB, "D"G,2 G,A, :|2 "G"GE DB, G,4 | 


